packages/vibrant-icons/assets/icons/Person2/Regular.svg

<svg width="22" height="21" viewBox="0 0 22 21" fill="none" xmlns="http://www.w3.org/2000/svg">
<path fill-rule="evenodd" clip-rule="evenodd" d="M6.9999 0.899902C4.52843 0.899902 2.5249 2.90343 2.5249 5.3749C2.5249 7.84638 4.52843 9.8499 6.9999 9.8499C9.47138 9.8499 11.4749 7.84638 11.4749 5.3749C11.4749 2.90343 9.47138 0.899902 6.9999 0.899902ZM4.7249 5.3749C4.7249 4.11845 5.74345 3.0999 6.9999 3.0999C8.25635 3.0999 9.2749 4.11845 9.2749 5.3749C9.2749 6.63135 8.25635 7.6499 6.9999 7.6499C5.74345 7.6499 4.7249 6.63135 4.7249 5.3749Z" fill="#0C0C0C"/>
<path fill-rule="evenodd" clip-rule="evenodd" d="M16.7499 3.8999C14.5546 3.8999 12.7749 5.67957 12.7749 7.8749C12.7749 10.0702 14.5546 11.8499 16.7499 11.8499C18.9452 11.8499 20.7249 10.0702 20.7249 7.8749C20.7249 5.67957 18.9452 3.8999 16.7499 3.8999ZM14.9749 7.8749C14.9749 6.8946 15.7696 6.0999 16.7499 6.0999C17.7302 6.0999 18.5249 6.8946 18.5249 7.8749C18.5249 8.85521 17.7302 9.6499 16.7499 9.6499C15.7696 9.6499 14.9749 8.85521 14.9749 7.8749Z" fill="#0C0C0C"/>
<path fill-rule="evenodd" clip-rule="evenodd" d="M0.349903 20.8499C0.239446 20.8499 0.149902 20.7604 0.149902 20.6499V17.7499C0.149902 14.0281 3.15718 10.6499 6.9999 10.6499C9.59127 10.6499 11.8027 12.1861 12.9682 14.3281C13.9014 13.2974 15.25 12.6499 16.7499 12.6499C19.5666 12.6499 21.8499 14.9333 21.8499 17.7499V20.6499C21.8499 20.7604 21.7604 20.8499 21.6499 20.8499H0.349903ZM16.7499 14.8499C15.1489 14.8499 13.851 16.1472 13.8499 17.7479L13.8499 18.6499H19.6499V17.7499C19.6499 16.1483 18.3515 14.8499 16.7499 14.8499ZM11.6499 18.6499H2.3499V17.7499C2.3499 15.1204 4.49135 12.8499 6.9999 12.8499C9.50846 12.8499 11.6499 15.1204 11.6499 17.7499V18.6499Z" fill="#0C0C0C"/>
</svg>

<svg xmlns="http://www.w3.org/2000/svg" width="22" height="21" fill="none"><path fill="#0C0C0C" fill-rule="evenodd" d="M7 .9a4.475 4.475 0 1 0 0 8.95A4.475 4.475 0 0 0 7 .9M4.725 5.375a2.275 2.275 0 1 1 4.55 0 2.275 2.275 0 0 1-4.55 0M16.75 3.9a3.975 3.975 0 1 0 0 7.95 3.975 3.975 0 0 0 0-7.95m-1.775 3.975a1.775 1.775 0 1 1 3.55 0 1.775 1.775 0 0 1-3.55 0" clip-rule="evenodd"/><path fill="#0C0C0C" fill-rule="evenodd" d="M.35 20.85a.2.2 0 0 1-.2-.2v-2.9c0-3.722 3.007-7.1 6.85-7.1 2.591 0 4.803 1.536 5.968 3.678a5.1 5.1 0 0 1 8.882 3.422v2.9a.2.2 0 0 1-.2.2zm16.4-6a2.9 2.9 0 0 0-2.9 2.898v.902h5.8v-.9a2.9 2.9 0 0 0-2.9-2.9m-5.1 3.8h-9.3v-.9c0-2.63 2.141-4.9 4.65-4.9 2.508 0 4.65 2.27 4.65 4.9z" clip-rule="evenodd"/></svg>
